markup/images/icon34.svg

<svg xmlns="http://www.w3.org/2000/svg" width="43" height="37"><path fill-rule="evenodd" fill="#FFF" d="M42.259 29.449c-1.101 0-1.623.304-2.228.656-.688.4-1.468.854-2.962.854-1.494 0-2.274-.454-2.963-.854-.604-.352-1.126-.656-2.227-.656-1.1 0-1.622.304-2.226.656-.688.4-1.468.854-2.962.854-1.495 0-2.274-.454-2.963-.854-.604-.352-1.126-.656-2.226-.656-1.101 0-1.623.304-2.227.656-.688.4-1.468.854-2.962.854-1.494 0-2.274-.454-2.962-.854-.604-.352-1.126-.656-2.227-.656-1.1 0-1.622.304-2.226.656-.688.4-1.468.854-2.963.854-1.494 0-2.274-.454-2.962-.854-.604-.352-1.126-.656-2.226-.656a.748.748 0 0 1-.742-.755c0-.417.332-.755.742-.755 1.494 0 2.274.454 2.962.854.604.352 1.126.656 2.226.656 1.101 0 1.623-.304 2.227-.656.221-.128.451-.262.711-.385V9.08c0-5.007 3.999-9.08 8.914-9.08.205 0 .412.007.616.021a.751.751 0 0 1 .689.805.745.745 0 0 1-.79.702 7.383 7.383 0 0 0-.515-.018c-4.098 0-7.431 3.396-7.431 7.57v1.454h6.69V9.08c0-5.007 3.998-9.08 8.914-9.08 4.915 0 8.914 4.073 8.914 9.08a.748.748 0 0 1-.742.755.748.748 0 0 1-.741-.755c0-4.174-3.334-7.57-7.431-7.57-.915 0-1.792.171-2.602.48 2.111 1.714 3.343 4.291 3.343 7.09a.748.748 0 0 1-.741.755.748.748 0 0 1-.742-.755c0-2.569-1.244-4.913-3.34-6.321a7.604 7.604 0 0 0-3.35 6.321v17.405a.748.748 0 0 1-.741.755.748.748 0 0 1-.741-.755v-2.303h-6.69v3.801a6.43 6.43 0 0 1 .768-.044c1.494 0 2.274.454 2.962.854.605.352 1.127.656 2.227.656 1.1 0 1.622-.304 2.227-.656.688-.4 1.468-.854 2.962-.854 1.494 0 2.274.454 2.962.854.604.352 1.126.656 2.227.656 1.1 0 1.622-.304 2.226-.656.688-.4 1.468-.854 2.962-.854 1.495 0 2.275.454 2.963.854.604.352 1.127.656 2.227.656 1.101 0 1.623-.304 2.227-.656.688-.4 1.468-.854 2.963-.854.409 0 .741.338.741.755a.748.748 0 0 1-.741.755zM17.046 12.044h-6.69v4.559h6.69v-4.559zm0 10.628v-4.559h-6.69v4.559h6.69zM5.935 32.469c1.101 0 1.623-.304 2.227-.655.688-.401 1.468-.855 2.962-.855 1.494 0 2.274.454 2.962.855.605.351 1.127.655 2.227.655 1.1 0 1.622-.304 2.227-.655.688-.401 1.468-.855 2.962-.855 1.494 0 2.274.454 2.962.855.604.351 1.126.655 2.227.655 1.1 0 1.622-.303 2.226-.655.688-.401 1.468-.855 2.962-.855 1.495 0 2.275.454 2.963.855.604.351 1.127.655 2.227.655.409 0 .741.338.741.755a.75.75 0 0 1-.741.756c-1.494 0-2.274-.455-2.963-.855-.604-.352-1.126-.656-2.227-.656-1.1 0-1.622.304-2.226.656-.688.4-1.468.855-2.962.855-1.494 0-2.274-.455-2.963-.855-.604-.352-1.126-.656-2.226-.656-1.101 0-1.623.304-2.227.656-.688.4-1.468.855-2.962.855-1.494 0-2.274-.455-2.962-.855-.604-.352-1.126-.656-2.227-.656-1.1 0-1.622.304-2.226.656-.688.4-1.468.855-2.963.855a.75.75 0 0 1-.741-.756c0-.417.332-.755.741-.755zm5.189 1.511c1.494 0 2.274.454 2.962.854.605.352 1.127.656 2.227.656 1.1 0 1.622-.304 2.227-.656.688-.4 1.468-.854 2.962-.854 1.494 0 2.274.454 2.962.854.604.352 1.126.656 2.227.656 1.1 0 1.622-.304 2.226-.656.688-.4 1.468-.854 2.962-.854.41 0 .742.338.742.755a.748.748 0 0 1-.742.755c-1.1 0-1.622.303-2.226.655-.688.401-1.468.855-2.962.855-1.494 0-2.274-.454-2.963-.855-.604-.351-1.126-.655-2.226-.655-1.101 0-1.623.303-2.227.655-.688.401-1.468.855-2.962.855-1.494 0-2.274-.454-2.962-.855-.604-.351-1.126-.655-2.227-.655a.748.748 0 0 1-.741-.755c0-.417.332-.755.741-.755z"/></svg>

<svg 
 xmlns="http://www.w3.org/2000/svg"
 xmlns:xlink="http://www.w3.org/1999/xlink"
 width="43px" height="37px">
<path fill-rule="evenodd"  fill="rgb(255, 255, 255)"
 d="M42.259,29.449 C41.158,29.449 40.636,29.753 40.031,30.105 C39.343,30.505 38.563,30.959 37.069,30.959 C35.575,30.959 34.795,30.505 34.106,30.105 C33.502,29.753 32.980,29.449 31.879,29.449 C30.779,29.449 30.257,29.753 29.653,30.105 C28.965,30.505 28.185,30.959 26.691,30.959 C25.196,30.959 24.417,30.505 23.728,30.105 C23.124,29.753 22.602,29.449 21.502,29.449 C20.401,29.449 19.879,29.753 19.275,30.105 C18.587,30.505 17.807,30.959 16.313,30.959 C14.819,30.959 14.039,30.505 13.351,30.105 C12.747,29.753 12.225,29.449 11.124,29.449 C10.024,29.449 9.502,29.753 8.898,30.105 C8.210,30.505 7.430,30.959 5.935,30.959 C4.441,30.959 3.661,30.505 2.973,30.105 C2.369,29.753 1.847,29.449 0.747,29.449 C0.337,29.449 0.005,29.111 0.005,28.694 C0.005,28.277 0.337,27.939 0.747,27.939 C2.241,27.939 3.021,28.393 3.709,28.793 C4.313,29.145 4.835,29.449 5.935,29.449 C7.036,29.449 7.558,29.145 8.162,28.793 C8.383,28.665 8.613,28.531 8.873,28.408 L8.873,9.080 C8.873,4.073 12.872,-0.000 17.787,-0.000 C17.992,-0.000 18.199,0.007 18.403,0.021 C18.811,0.050 19.120,0.410 19.092,0.826 C19.064,1.242 18.711,1.557 18.302,1.528 C18.131,1.516 17.958,1.510 17.787,1.510 C13.689,1.510 10.356,4.906 10.356,9.080 L10.356,10.534 L17.046,10.534 L17.046,9.080 C17.046,4.073 21.044,-0.000 25.960,-0.000 C30.875,-0.000 34.874,4.073 34.874,9.080 C34.874,9.497 34.542,9.835 34.132,9.835 C33.723,9.835 33.391,9.497 33.391,9.080 C33.391,4.906 30.057,1.510 25.960,1.510 C25.045,1.510 24.168,1.681 23.358,1.990 C25.469,3.704 26.701,6.281 26.701,9.080 C26.701,9.497 26.369,9.835 25.960,9.835 C25.550,9.835 25.218,9.497 25.218,9.080 C25.218,6.511 23.974,4.167 21.878,2.759 C19.862,4.114 18.528,6.441 18.528,9.080 L18.528,26.485 C18.528,26.902 18.196,27.240 17.787,27.240 C17.378,27.240 17.046,26.902 17.046,26.485 L17.046,24.182 L10.356,24.182 L10.356,27.983 C10.589,27.955 10.844,27.939 11.124,27.939 C12.618,27.939 13.398,28.393 14.086,28.793 C14.691,29.145 15.213,29.449 16.313,29.449 C17.413,29.449 17.935,29.145 18.540,28.793 C19.228,28.393 20.008,27.939 21.502,27.939 C22.996,27.939 23.776,28.393 24.464,28.793 C25.068,29.145 25.590,29.449 26.691,29.449 C27.791,29.449 28.313,29.145 28.917,28.793 C29.605,28.393 30.385,27.939 31.879,27.939 C33.374,27.939 34.154,28.393 34.842,28.793 C35.446,29.145 35.969,29.449 37.069,29.449 C38.170,29.449 38.692,29.145 39.296,28.793 C39.984,28.393 40.764,27.939 42.259,27.939 C42.668,27.939 43.000,28.277 43.000,28.694 C43.000,29.111 42.668,29.449 42.259,29.449 ZM17.046,12.044 L10.356,12.044 L10.356,16.603 L17.046,16.603 L17.046,12.044 ZM17.046,22.672 L17.046,18.113 L10.356,18.113 L10.356,22.672 L17.046,22.672 ZM5.935,32.469 C7.036,32.469 7.558,32.165 8.162,31.814 C8.850,31.413 9.630,30.959 11.124,30.959 C12.618,30.959 13.398,31.413 14.086,31.814 C14.691,32.165 15.213,32.469 16.313,32.469 C17.413,32.469 17.935,32.165 18.540,31.814 C19.228,31.413 20.008,30.959 21.502,30.959 C22.996,30.959 23.776,31.413 24.464,31.814 C25.068,32.165 25.590,32.469 26.691,32.469 C27.791,32.469 28.313,32.166 28.917,31.814 C29.605,31.413 30.385,30.959 31.879,30.959 C33.374,30.959 34.154,31.413 34.842,31.814 C35.446,32.165 35.969,32.469 37.069,32.469 C37.478,32.469 37.810,32.807 37.810,33.224 C37.810,33.641 37.478,33.980 37.069,33.980 C35.575,33.980 34.795,33.525 34.106,33.125 C33.502,32.773 32.980,32.469 31.879,32.469 C30.779,32.469 30.257,32.773 29.653,33.125 C28.965,33.525 28.185,33.980 26.691,33.980 C25.197,33.980 24.417,33.525 23.728,33.125 C23.124,32.773 22.602,32.469 21.502,32.469 C20.401,32.469 19.879,32.773 19.275,33.125 C18.587,33.525 17.807,33.980 16.313,33.980 C14.819,33.980 14.039,33.525 13.351,33.125 C12.747,32.773 12.225,32.469 11.124,32.469 C10.024,32.469 9.502,32.773 8.898,33.125 C8.210,33.525 7.430,33.980 5.935,33.980 C5.526,33.980 5.194,33.641 5.194,33.224 C5.194,32.807 5.526,32.469 5.935,32.469 ZM11.124,33.980 C12.618,33.980 13.398,34.434 14.086,34.834 C14.691,35.186 15.213,35.490 16.313,35.490 C17.413,35.490 17.935,35.186 18.540,34.834 C19.228,34.434 20.008,33.980 21.502,33.980 C22.996,33.980 23.776,34.434 24.464,34.834 C25.068,35.186 25.590,35.490 26.691,35.490 C27.791,35.490 28.313,35.186 28.917,34.834 C29.605,34.434 30.385,33.980 31.879,33.980 C32.289,33.980 32.621,34.318 32.621,34.735 C32.621,35.152 32.289,35.490 31.879,35.490 C30.779,35.490 30.257,35.793 29.653,36.145 C28.965,36.546 28.185,37.000 26.691,37.000 C25.197,37.000 24.417,36.546 23.728,36.145 C23.124,35.794 22.602,35.490 21.502,35.490 C20.401,35.490 19.879,35.793 19.275,36.145 C18.587,36.546 17.807,37.000 16.313,37.000 C14.819,37.000 14.039,36.546 13.351,36.145 C12.747,35.794 12.225,35.490 11.124,35.490 C10.715,35.490 10.383,35.152 10.383,34.735 C10.383,34.318 10.715,33.980 11.124,33.980 Z"/>
</svg>
